X: 3
T: The Blackthorn Stick
R: jig
M: 6/8
L: 1/8
K: Gmaj
d|g>fg efg|dBG AFD|DGG AGA|BGB ABd|
gfg efg|dBG AFD|AGG AGA|BGG G2:|
|:d|edd gdd|edd gdB|def gdB|eAA ABd|
edd gdd|edd gdB|DGG AGA|BGG G2:||


Tune 702	Setting 27685

